rospo-icon-theme-classic-common/24x24/apps/com.github.keyilan.swatches.svg

<svg height="24" width="24" xmlns="http://www.w3.org/2000/svg"><path d="m2 16.5v4.5c0 .831.669 1.5 1.5 1.5h16c .831 0 1.5-.669 1.5-1.5v-4.5z" opacity=".2"/><path d="m3.5 2c-.831 0-1.5.669-1.5 1.5v12.55h19v-12.55c0-.831-.669-1.5-1.5-1.5z" fill="#ffbf3f"/><path d="m2 15v5.5c0 .831.669 1.5 1.5 1.5h16c .831 0 1.319731-.688789 1.5-1.5v-5.5z" fill="#e4e4e4"/><rect fill="#4f4f4f" height="1" opacity=".6" rx=".462" ry=".5" width="6" x="3" y="19"/><path d="m3.5 2c-.831 0-1.5.669-1.5 1.5v.5c0-.831.669-1.5 1.5-1.5h16c .831 0 1.5.669 1.5 1.5v-.5c0-.831-.669-1.5-1.5-1.5z" fill="#fff" opacity=".2"/><path d="m2 15v .5h19v-.5z" fill="#fff" opacity=".2"/><rect fill="#4f4f4f" height="1" rx=".5" width="13" x="3" y="17"/><path d="m2 14.5v.5h19v-.5z" opacity=".1"/></svg>

<svg xmlns="http://www.w3.org/2000/svg" width="24" height="24" version="1">
 <path d="M 2,16.5 2,21 c 0,0.831 0.669,1.5 1.5,1.5 l 16,0 c 0.831,0 1.5,-0.669 1.5,-1.5 l 0,-4.5 z" style="opacity:0.2"/>
 <path d="M 3.5,2 C 2.669,2 2,2.669 2,3.5 l 0,12.55 19,0 L 21,3.5 C 21,2.669 20.331,2 19.5,2 Z" style="fill:#ffbf3f"/>
 <path style="fill:#cccccc" d="m 2,15 0,5.5 C 2,21.331 2.669,22 3.5,22 l 16,0 c 0.831,0 1.319731,-0.688789 1.5,-1.5 L 21,15 Z"/>
 <rect width="6" height="1" x="3" y="19" rx=".462" ry=".5" style="opacity:0.6;fill:#4f4f4f"/>
 <path style="opacity:0.2;fill:#ffffff" d="M 3.5,2 C 2.669,2 2,2.669 2,3.5 L 2,4 C 2,3.169 2.669,2.5 3.5,2.5 l 16,0 C 20.331,2.5 21,3.169 21,4 L 21,3.5 C 21,2.669 20.331,2 19.5,2 Z"/>
 <path style="opacity:0.2;fill:#ffffff" d="m 2,15 0,0.5 19,0 0,-0.5 z"/>
 <rect style="fill:#4f4f4f" width="13" height="1" x="3" y="17" rx=".5" ry=".5"/>
 <path d="m 2,14.5 0,0.5 19,0 0,-0.5 z" style="opacity:0.1"/>
</svg>
